X: 38
T: No_1_Song_Conserning_the_Whale_Which_Could_Not_Be_Eaten.krn
N: Derived from No_1_Song_Conserning_the_Whale_Which_Could_Not_Be_Eaten.krn
%%abc-version 2.0
%%abcx-abcm2ps-target-version 5.9.1 (29 Sep 2008)
%%abc-creator hum2abc beta
%%abcx-conversion-date 2019/03/15 08:36:13
%%humdrum-veritas 3862273657
%%humdrum-veritas-data 2176422856
%%linebreak <none>
%%barnumbers 0
L: 1/4
M: 2/4
%%staves {1 2}
V: 1 clef=bass
V: 2 clef=bass
K: Db
[V:1] [K:clef=bass][M:2/4].('D2- | 
[V:2] [K:clef=bass][M:2/4]z2 | 
[V:1] D2 | 
[V:2] z2 | 
[V:1] C)z | 
[V:2] z2 | 
[V:1] .('D2- | 
[V:2] z2 | 
[V:1] (D2 | 
[V:2] z2 | 
[V:1] C2) | 
[V:2] z2 | 
[V:1] B,2- | 
[V:2] z2 | 
[V:1] B,2- | 
[V:2] z2 | 
[V:1] B,)z | 
[V:2] z2 | 
[V:1] Cz | 
[V:2] z2 | 
[V:1] Cz | 
[V:2] z2 | 
[V:1] Cz | 
[V:2] z2 | 
[V:1] z2 | 
[V:2] z2 | 
[V:1] z2 | 
[V:2] z2 | 
[V:1] z2 ||  
[V:2] z2 ||  
[V:1] [M:3/4].('C2C | 
[V:2] [M:3/4]G,,G,,z | 
[V:1] C2)z | 
[V:2] G,,G,,z | 
[V:1] .('C2C | 
[V:2] G,,G,,z | 
[V:1] C)z.('=B, | 
[V:2] G,,G,,z | 
[V:1] C2C | 
[V:2] G,,G,,z | 
[V:1] C)z.('=B, | 
[V:2] G,,G,,z | 
[V:1] C2D | 
[V:2] G,,G,,z | 
[V:1] C2)z | 
[V:2] G,,G,,z | 
[V:1] .('C2C | 
[V:2] G,,G,,z | 
[V:1] C2)z | 
[V:2] G,,G,,z | 
[V:1] .('C2C | 
[V:2] G,,G,,z | 
[V:1] C)z.('=B, | 
[V:2] G,,G,,z | 
[V:1] C2D | 
[V:2] G,,G,,z | 
[V:1] C)z.('=B, | 
[V:2] G,,G,,z | 
[V:1] C2D | 
[V:2] G,,G,,z | 
[V:1] C2)z ||  
[V:2] G,,G,,z ||  
[V:1] [M:2/4]D2- | 
[V:2] [M:2/4]zz | 
[V:1] .('D2 | 
[V:2] z2 | 
[V:1] C2- | 
[V:2] z2 | 
[V:1] C3/B,/ | 
[V:2] z2 | 
[V:1] B,)z | 
[V:2] z2 | 
[V:1] .('Cz | 
[V:2] z2 | 
[V:1] Cz | 
[V:2] z2 | 
[V:1] Cz) |]  
[V:2] z2 |]  



